!!!COM: Bach, Johann Sebastian
!!!CDT: 1685/3//-1750/7/28/
!!!OTL@@DE: Jesus Christus, unser Heiland
!!!AGN: 4-Part Chorale
!!!SCT: BH 030
!!!SCT: BWV 363
**harm	**root	**kern	**kern	**kern	**kern
!	!	!bass	!tenor	!alto	!soprno
*	*Iorgan	*Iorgan	*Iorgan	*Iorgan	*Iorgan
*M4/4	*M4/4	*M4/4	*M4/4	*M4/4	*M4/4
*met(c)	*met(c)	*met(c)	*met(c)	*met(c)	*met(c)
*MM60	*MM60	*MM60	*MM60	*MM60	*MM60
*k[b-e-a-]	*k[b-e-a-]	*k[b-e-a-]	*k[b-e-a-]	*k[b-e-a-]	*k[b-e-a-]
*c:	*c:	*c:	*c:	*c:	*c:
=1-	=1-	=1-	=1-	=1-	=1-
i	4EE	4.C	4E-	4G	4c
vb	4BB	.	4D	4G	4g
.	.	8BB-	.	.	.
VI7	4CC	2AA-	4E-	8c	4g
.	.	.	.	8B	.
ivb	4AA	.	8D	4c	4f
.	.	.	8C	.	.
=2	=2	=2	=2	=2	=2
V	4BB	8GG	4D	4B	4g
.	.	8F	.	.	.
ib	8EE	8E-	8G	8c	8c
-VIIb	8DD#	8D	8F	8B	8d
i	4EE	8C	4G	4c	4e-
.	.	8BB-	.	.	.
VI	4CC	8AA-	8c	4c	4e-
.	.	8GG	8B	.	.
=3	=3	=3	=3	=3	=3
viioD7/V	4AA#	4FF#	4A	4.c	4e-
V7	4BB	4GG	8D	.	4d
.	.	.	16G	8B	.
.	.	.	16F	.	.
i;	2EE;	2CC;	2E-;	2G;	2c;
=4	=4	=4	=4	=4	=4
i	4EE	8C	4G	4c	4e-
.	.	8BB-	.	.	.
VI	4CC	4AA-	4A-	4c	4e-
IIIb	4GG	4GG	4E-	4B-	4e-
VI	4CC	4AA-	4E-	4A-	4c
=5	=5	=5	=5	=5	=5
IIIb	4GG	8AA-	8E-	4B-	4e-
.	.	8GG	16F	.	.
.	.	.	16G	.	.
IV	4AA	4FF	4A-	8c	4f
.	.	.	.	8d	.
III	4GG	4EE-	8B-	4.e-	4g
.	.	.	16c	.	.
.	.	.	16B-	.	.
iib	4FF#	4FF	16A-	.	4f
.	.	.	16G	.	.
.	.	.	8A-	[8d	.
=6	=6	=6	=6	=6	=6
ic	4EE	2GG	4G	8d]	4e-
.	.	.	.	4c	.
V	4BB	.	8.G	.	4d
.	.	.	.	8B	.
.	.	.	16F	.	.
i;	2EE;	2C;	2E-;	2G;	2c;
!!linebreak: 2
=7	=7	=7	=7	=7	=7
i	4EE	4C	8G	4c	4e-
.	.	.	8A-	.	.
IIIb	4GG	4GG	4B-	8e-	4e-
.	.	.	.	8d	.
VI	4CC	8AA-	4A-	4c	4e-
.	.	8BB-	.	.	.
VIb	4CC	8C	4E-	4A-	4c
.	.	8BB-	.	.	.
=8	=8	=8	=8	=8	=8
VI	4CC	8AA-	4E-	8c	4e-
.	.	8GG	.	8B-	.
IV	4AA	4FF	4A-	8c	4f
.	.	.	.	8d	.
III	4GG	4EE-	[4B-	4.e-	4g
-VII	4DD	4BB-	8.B-]	.	4f
.	.	.	.	8d	.
.	.	.	16A-	.	.
=9	=9	=9	=9	=9	=9
III;	2GG;	2EE-;	2G;	2B-;	2e-;
r	4r	4r	4r	4r	4r
IIIb	4GG	4GG	4B-	8e-	4b-
.	.	.	.	8d-	.
=10	=10	=10	=10	=10	=10
VI	4CC	4AA-	8A-	4c	4cc
.	.	.	8G	.	.
-VII	4DD	4BB-	4F	4dy	8b-
.	.	.	.	.	8a-
i	8EE	4.C	8E-	8e-	8g
viioD7	8DD#	.	8A-	8B	8f
i	8EE	.	8G	8c	8e-
-VIIb	8DD	8D	8F	[8B-	8f
=11	=11	=11	=11	=11	=11
III	8GG	8E-	8E-	8B-]	4g
IIIb	8GG	8GG	8B-	4e-	.
V7b/-VII	8AA	8AA	8c	.	4f
V7b	8BB	8BB	8G	4d	.
i	4EE	8C	4G	.	4e-
.	.	8EE-	.	4c	.
viiD7/III	8FF#	8FF	8A-	.	4d
V	8BB	8GG	16G	8B	.
.	.	.	16F	.	.
=12	=12	=12	=12	=12	=12
I;	2.EE;	2.CC;	2.E;	2.G;	2.c;
==	==	==	==	==	==
*-	*-	*-	*-	*-	*-
!!chor2scor: -l 2 -s 0.6 -o %b.pmx
!!!YEC: Copyright 1994, David Huron
!!!YEC: Changes/Additions 2001 by Craig Stuart Sapp
!!!YEN: United States of America
!!!SMA: 371 Bach Chorales, edited by Ludwig Erk, C.F. Peters
!!!PDT: 1850, 1865
!!!ONB: Harmony and Root analysis done manually
